X: 25854
T: Master's Return, The
R: reel
M: 4/4
K: Dmajor
d2dB ABde|fedf eBBA|FAdB AFDF|EGFE D2 (3ABc:|
d2fd Adfd|edfd eB~B2|d2fd Adfd|egfe d2 (3ABc|
defg afdf|gedf eB~B2|defg a2ag|faef d2fe||

